assets/svg/xls-file.svg

<svg width="1024" height="1024" xmlns="http://www.w3.org/2000/svg" p-id="1252" version="1.1" class="icon" t="1721619615552">

 <g>
  <title>Layer 1</title>
  <path id="svg_1" p-id="1253" fill="#4CB050" d="m160,0l512,0l256,256l0,704c0,35.3472 -28.6528,64 -64,64l-704,0c-35.3472,0 -64,-28.6528 -64,-64l0,-896c0,-35.3472 28.6528,-64 64,-64z"/>
  <path id="svg_2" p-id="1254" fill="#FFFFFF" d="m400.256,768l114.656,-164.5696l115.2512,164.5696l54.6368,0l-143.3792,-199.5264l133.056,-184.4736l-54.6368,0l-104.928,149.5104l-104.416,-149.5104l-54.6176,0l131.9872,184.4736l-142.2656,199.5264l54.656,0z"/>
  <path id="svg_3" p-id="1255" fill="#B7DFB9" d="m672,0l256,256l-192,0c-35.3472,0 -64,-28.6528 -64,-64l0,-192z"/>
 </g>
</svg>

<svg t="1721619615552" class="icon" viewBox="0 0 1024 1024" version="1.1" xmlns="http://www.w3.org/2000/svg" p-id="1252" width="200" height="200"><path d="M160 0h512l256 256v704c0 35.3472-28.6528 64-64 64H160c-35.3472 0-64-28.6528-64-64V64c0-35.3472 28.6528-64 64-64z" fill="#4CB050" p-id="1253"></path><path d="M400.256 768l114.656-164.5696L630.1632 768H684.8L541.4208 568.4736 674.4768 384H619.84L514.912 533.5104 410.496 384h-54.6176l131.9872 184.4736L345.6 768z" fill="#FFFFFF" p-id="1254"></path><path d="M672 0l256 256h-192c-35.3472 0-64-28.6528-64-64V0z" fill="#B7DFB9" p-id="1255"></path></svg>
